X: 4
T: The Galway
R: reel
M: 4/4
L: 1/8
K: Gmaj
|:B|AGEG DG (3Bcd|BAGA BedB|AGED BDAD|B~A3 BEED|E2DE GEDE|D2EG D2EG|EDEG DEGA|(3Bcd AB G3:|||:B|d~G3 EGDc|BGBd gdeg|ecBc (3BAG FA|DFAd fed^c|d~G3 EGDc|BGBd gdeg|ecBc efge|dBAB G3:||


Tune 613	Setting 13627

